X: 3
T:Morris Reel, Winster
M:6/8
L:1/8
A:Winster
P:A(A2B)2A
K:A
P:A
E|A>BA B2c |d>cB e>dc|A>BA B2c |dBG  A2 ||
P:B
|:E|a>gf e>dc|B>cd c>BA|a>gf e>dc|B>cd c2e|
a>gf e>dc|B>cd c>BA|a>gf e>dc|B>AB A2:||
